X: 1
T:Bacca Pipes
M:6/8
L:1/8
Q:150
S:Bacon (MB)
R:Jig
O:English
A:Headington
P:(A(BA)4)3.A(B2A)4
N:
K:ADor
P:A
|: c3   c2 e | d2 c B3   | c2 B A3   | B2 A G3 |\
   c3   c2 e | d2 c B3   | c2 A B2 G | A3   A3 :|
P:B
|: g2 f g2 e | d2 B G3   | g2 f g2 e | a2 f d3 |\
   g2 f g2 e | d2 c B3   | c2A B2 G | A3   A3 :|
